X: 12
T: Sawny's Return
R: jig
M: 6/8
L: 1/8
Z: 2010 John Chambers <jc:trillian.mit.edu>
B: John Johnson ed. "Twenty Four Country Dances", p.78 London 1766
K: A
|: A2c c2e | ede cBA | A2c c2e | e^de E3 |\
   A2c c2e | ede cBA | a2g fge | B2^d e3 :|
|: a2e cBA |=g2e cBA | fga ega | edc {c}[B3E3] |\
   cBc AGF | dBA GFE | a2e fdc | BAG A3 :|


%%sep 5 1 500

